!!!OTL: WENN MAN BIM BUREN DIENT
!!!ARE: Europa, Mitteleuropa, Deutschland, Hannover, Calenberg
!!!SCT: E1541
!!!YEM: Copyright 1995, estate of Helmut Schaffrath.
**kern
*ICvox
*Ivox
*M3/4
*k[b-]
*F:
=1
{4f
4f
4g
=2
4.a
8b-
4cc}
=3
{4b-
4a
4g
=4
2f
4r}
=5
{4b-
4b-
4g
=6
4.a
8g
4f}
=7
{4.cc
8b-
4a
=8
2g
4r}
=9
{4g
4g
4f
=10
4.e
8d
4c}
=11
{4g
4g
4f
=12
4.e
8d
4c}
=13
{2f
8a
8b-
=14
2cc}
{8b-
8a
=15
4b-
4a
4g
=16
2.cc}
=17
{2f
8a
8b-
=18
2cc}
{8b-
8a
=19
4b-
4a
4g
=20
2f
4r}
==
!!!AGN: Staende -, Bauern - Lied, Spott
!!!ONB: ESAC (Essen Associative Code) Database: ERK3
!!!AMT: simple triple
!!!AIN: vox
!!!EED: Helmut Schaffrath
!!!EEV: 1.0
*-
